src/icons/default/CurrencyDollar.svg

<svg width="24" height="24" viewBox="0 0 24 24" fill="none" xmlns="http://www.w3.org/2000/svg">
<rect x="2.75" y="2.75" width="18.5" height="18.5" rx="9.25" stroke="black" stroke-width="1.5"/>
<path d="M14.5 8H10.5C9.39543 8 8.5 8.89543 8.5 10V10C8.5 11.1046 9.39543 12 10.5 12H13.5C14.6046 12 15.5 12.8954 15.5 14V14C15.5 15.1046 14.6046 16 13.5 16H9.5" stroke="black" stroke-width="1.5" stroke-linecap="round"/>
<path d="M12.25 6L12.25 18" stroke="black" stroke-width="1.5" stroke-linecap="round"/>
</svg>

<svg xmlns="http://www.w3.org/2000/svg" width="24" height="24" fill="none"><rect width="18.5" height="18.5" x="2.75" y="2.75" stroke="#000" stroke-width="1.5" rx="9.25"/><path stroke="#000" stroke-linecap="round" stroke-width="1.5" d="M14.5 8h-4a2 2 0 0 0-2 2v0a2 2 0 0 0 2 2h3a2 2 0 0 1 2 2v0a2 2 0 0 1-2 2h-4M12.25 6v12"/></svg>
